X:92
T: Waechterlied
N: A0107
O: Europa, Mitteleuropa, Deutschland
N: Souterliedekens ad Ps. 90.
R: Romanze, Ballade, Lied
M: 3/2
L: 1/4
K: D
D2 | =F2F2G2A2 | _B2A2=F2F2 | G4A4
z2A2A2A2 | A4G2=F2E4 | D4z2
A2 | A2A2G2=F2 | D4=C4
z2C2D2E2 | =F2G4F2E4 | D6 | z4
D2 | =F4G2 | A4A2 | _B4A2 | G3A_BA | G3=FED | =C4z2 | z4
G2 | A2G2=F2 | D2E4 | =F3EDC | D4

